src/assets/icons/cardPhoto.svg

<svg width="17" height="14" viewBox="0 0 17 14" fill="none" xmlns="http://www.w3.org/2000/svg">
<path d="M15.1658 2.5H12.4564L12.1071 0.753656C12.0198 0.316969 11.6331 0 11.1878 0H5.95636C5.51105 0 5.1244 0.316969 5.03708 0.753656L4.6878 2.5H1.97833C1.20293 2.5 0.572083 3.13084 0.572083 3.90625V12.0312C0.572083 12.8067 1.20293 13.4375 1.97833 13.4375H15.1658C15.9412 13.4375 16.5721 12.8067 16.5721 12.0312V3.90625C16.5721 3.13084 15.9412 2.5 15.1658 2.5ZM5.95636 0.9375H11.1878L11.5003 2.5H5.64386L5.95636 0.9375ZM15.6346 12.0312C15.6346 12.2897 15.4243 12.5 15.1658 12.5H1.97833C1.71986 12.5 1.50958 12.2897 1.50958 12.0312V3.90625C1.50958 3.64778 1.71986 3.4375 1.97833 3.4375H15.1658C15.4243 3.4375 15.6346 3.64778 15.6346 3.90625V12.0312Z" fill="white"/>
<path d="M8.57208 4.5C6.65939 4.5 5.10333 6.05606 5.10333 7.96875C5.10333 9.88144 6.65939 11.4375 8.57208 11.4375C10.4848 11.4375 12.0408 9.88144 12.0408 7.96875C12.0408 6.05606 10.4848 4.5 8.57208 4.5ZM8.57208 10.5C7.17633 10.5 6.04083 9.36447 6.04083 7.96875C6.04083 6.57303 7.17633 5.4375 8.57208 5.4375C9.96783 5.4375 11.1033 6.57303 11.1033 7.96875C11.1033 9.36447 9.96783 10.5 8.57208 10.5Z" fill="white"/>
<path d="M4.57208 4.5H3.07208C2.81321 4.5 2.60333 4.70987 2.60333 4.96875C2.60333 5.22763 2.81321 5.4375 3.07208 5.4375H4.57208C4.83096 5.4375 5.04083 5.22763 5.04083 4.96875C5.04083 4.70987 4.83096 4.5 4.57208 4.5Z" fill="white"/>
</svg>

<svg xmlns="http://www.w3.org/2000/svg" width="17" height="14" fill="none"><path fill="#fff" d="M15.166 2.5h-2.71L12.107.754a.94.94 0 0 0-.92-.754h-5.23a.94.94 0 0 0-.92.754L4.687 2.5H1.979c-.775 0-1.406.63-1.406 1.406v8.125c0 .776.63 1.406 1.406 1.406h13.188c.775 0 1.406-.63 1.406-1.406V3.906c0-.775-.63-1.406-1.406-1.406ZM5.956.937h5.232L11.5 2.5H5.644L5.956.937Zm9.679 11.094a.47.47 0 0 1-.47.469H1.979a.47.47 0 0 1-.468-.469V3.906a.47.47 0 0 1 .468-.469h13.188a.47.47 0 0 1 .469.47v8.124Z"/><path fill="#fff" d="M8.572 4.5a3.473 3.473 0 0 0-3.469 3.469 3.473 3.473 0 0 0 3.47 3.468A3.473 3.473 0 0 0 12.04 7.97 3.473 3.473 0 0 0 8.572 4.5Zm0 6a2.534 2.534 0 0 1-2.531-2.531 2.534 2.534 0 0 1 2.531-2.532 2.534 2.534 0 0 1 2.531 2.532 2.534 2.534 0 0 1-2.53 2.531ZM4.572 4.5h-1.5a.469.469 0 0 0 0 .938h1.5a.469.469 0 0 0 0-.938Z"/></svg>
